src/assets/outline/ArrowSwapHorizontal.svg

<svg width="24" height="24" viewBox="0 0 24 24"  xmlns="http://www.w3.org/2000/svg">
<path d="M15.4902 20.7599C15.3002 20.7599 15.1102 20.6899 14.9602 20.5399C14.6702 20.2499 14.6702 19.7699 14.9602 19.4799L19.9702 14.4699C20.2602 14.1799 20.7402 14.1799 21.0302 14.4699C21.3202 14.7599 21.3202 15.2399 21.0302 15.5299L16.0202 20.5399C15.8702 20.6799 15.6802 20.7599 15.4902 20.7599Z" />
<path d="M20.5 15.74H3.5C3.09 15.74 2.75 15.4 2.75 14.99C2.75 14.58 3.09 14.24 3.5 14.24H20.5C20.91 14.24 21.25 14.58 21.25 14.99C21.25 15.4 20.91 15.74 20.5 15.74Z" />
<path d="M3.49994 9.75994C3.30994 9.75994 3.11994 9.68994 2.96994 9.53994C2.67994 9.24994 2.67994 8.76994 2.96994 8.47994L7.97994 3.46994C8.26994 3.17994 8.74994 3.17994 9.03994 3.46994C9.32994 3.75994 9.32994 4.23994 9.03994 4.52994L4.02994 9.53994C3.88994 9.67994 3.68994 9.75994 3.49994 9.75994Z" />
<path d="M20.5 9.76001H3.5C3.09 9.76001 2.75 9.42001 2.75 9.01001C2.75 8.60001 3.09 8.26001 3.5 8.26001H20.5C20.91 8.26001 21.25 8.60001 21.25 9.01001C21.25 9.42001 20.91 9.76001 20.5 9.76001Z" />
</svg>

<?xml version="1.0" encoding="UTF-8"?>
<svg width="24" height="24" viewBox="0 0 24 24" xmlns="http://www.w3.org/2000/svg">
 <path d="m15.49 20.76c-0.19 0-0.38-0.07-0.53-0.22-0.29-0.29-0.29-0.77 0-1.06l5.01-5.01c0.29-0.29 0.77-0.29 1.06 0s0.29 0.77 0 1.06l-5.01 5.01c-0.15 0.14-0.34 0.22-0.53 0.22z"/>
 <path d="m20.5 15.74h-17c-0.41 0-0.75-0.34-0.75-0.75s0.34-0.75 0.75-0.75h17c0.41 0 0.75 0.34 0.75 0.75s-0.34 0.75-0.75 0.75z"/>
 <path d="m3.4999 9.7599c-0.19 0-0.38-0.07-0.53-0.22-0.29-0.29-0.29-0.77 0-1.06l5.01-5.01c0.29-0.29 0.77-0.29 1.06 0s0.29 0.77 0 1.06l-5.01 5.01c-0.14 0.14-0.34 0.22-0.53 0.22z"/>
 <path d="m20.5 9.76h-17c-0.41 0-0.75-0.34-0.75-0.75s0.34-0.75 0.75-0.75h17c0.41 0 0.75 0.34 0.75 0.75s-0.34 0.75-0.75 0.75z"/>
</svg>
